Sweet-Rainbow/icons/soundkonverter.svg

<?xml version="1.0" encoding="UTF-8" standalone="no"?>
<!-- Generator: Gravit.io -->

<svg
   xmlns:dc="http://purl.org/dc/elements/1.1/"
   xmlns:cc="http://creativecommons.org/ns#"
   xmlns:rdf="http://www.w3.org/1999/02/22-rdf-syntax-ns#"
   xmlns:svg="http://www.w3.org/2000/svg"
   xmlns="http://www.w3.org/2000/svg"
   xmlns:sodipodi="http://sodipodi.sourceforge.net/DTD/sodipodi-0.dtd"
   xmlns:inkscape="http://www.inkscape.org/namespaces/inkscape"
   style="isolation:isolate"
   viewBox="0 0 36 36"
   width="48"
   height="48"
   version="1.1"
   id="svg27"
   sodipodi:docname="soundkonverter.svg"
   inkscape:version="0.92.4 (5da689c313, 2019-01-14)">
  <metadata
     id="metadata33">
    <rdf:RDF>
      <cc:Work
         rdf:about="">
        <dc:format>image/svg+xml</dc:format>
        <dc:type
           rdf:resource="http://purl.org/dc/dcmitype/StillImage" />
        <dc:title></dc:title>
      </cc:Work>
    </rdf:RDF>
  </metadata>
  <defs
     id="defs31" />
  <sodipodi:namedview
     pagecolor="#ffffff"
     bordercolor="#666666"
     borderopacity="1"
     objecttolerance="10"
     gridtolerance="10"
     guidetolerance="10"
     inkscape:pageopacity="0"
     inkscape:pageshadow="2"
     inkscape:window-width="640"
     inkscape:window-height="480"
     id="namedview29"
     showgrid="false"
     inkscape:zoom="29.365243"
     inkscape:cx="25.325443"
     inkscape:cy="32"
     inkscape:current-layer="svg27"
     units="px" />
  <linearGradient
     id="_lgradient_74"
     x1="0"
     y1="0.5"
     x2="0.90748805"
     y2="0.92007786"
     gradientTransform="matrix(46,0,0,46,1,1)"
     gradientUnits="userSpaceOnUse">
    <stop
       offset="2.1739130434782608%"
       stop-opacity="1"
       style="stop-color:rgb(242,79,92)"
       id="stop2" />
    <stop
       offset="49.56521739130435%"
       stop-opacity="1"
       style="stop-color:rgb(208,103,207)"
       id="stop4" />
    <stop
       offset="98.26086956521739%"
       stop-opacity="1"
       style="stop-color:rgb(49,193,233)"
       id="stop6" />
  </linearGradient>
  <linearGradient
     id="_lgradient_75"
     x1="-0.46697593"
     y1="0.048950683"
     x2="1.2005365"
     y2="1.2873238"
     gradientTransform="matrix(21.22,0,0,21.22,13.39,13.39)"
     gradientUnits="userSpaceOnUse">
    <stop
       offset="2.1739130434782608%"
       stop-opacity="1"
       style="stop-color:rgb(242,79,92)"
       id="stop11" />
    <stop
       offset="49.56521739130435%"
       stop-opacity="1"
       style="stop-color:rgb(208,103,207)"
       id="stop13" />
    <stop
       offset="98.26086956521739%"
       stop-opacity="1"
       style="stop-color:rgb(49,193,233)"
       id="stop15" />
  </linearGradient>
  <linearGradient
     id="_lgradient_76"
     x1="2.7992492"
     y1="14.525286"
     x2="38.761383"
     y2="40.952003"
     gradientTransform="scale(1.0000063,0.99999374)"
     gradientUnits="userSpaceOnUse">
    <stop
       offset="2.1739130434782608%"
       stop-opacity="1"
       style="stop-color:rgb(242,79,92)"
       id="stop18" />
    <stop
       offset="49.56521739130435%"
       stop-opacity="1"
       style="stop-color:rgb(208,103,207)"
       id="stop20" />
    <stop
       offset="98.26086956521739%"
       stop-opacity="1"
       style="stop-color:rgb(49,193,233)"
       id="stop22" />
  </linearGradient>
  <g
     id="g845"
     transform="matrix(0.7826087,0,0,0.7826087,-0.7826088,-0.7826088)">
    <path
       id="path9"
       d="m 33.484,40.48 -0.674,0.35 v 0 0 0 C 30.09,42.26 27.07,43 24,43 21.04,43 18.12,42.31 15.48,40.98 v 0 c -0.988,-0.497 -2.193,-0.098 -2.69,0.89 v 0 c -0.497,0.988 -0.098,2.193 0.89,2.69 v 0 C 16.88,46.17 20.42,47 24,47 c 3.48,0 6.908,-0.788 10.029,-2.301 -0.165,1.05 0.529,2.052 1.581,2.261 v 0 c 1.082,0.215 2.135,-0.488 2.35,-1.57 v 0 l 0.908,-4.539 C 39.084,39.769 38.458,38.49 37.47,37.997 L 33.89,36.21 v 0 c -0.982,-0.491 -2.181,-0.09 -2.675,0.895 v 0 c -0.494,0.985 -0.093,2.188 0.895,2.685 v 0 z M 11.73,4.545 11.85,4.47 C 15.5,2.2 19.71,1 24,1 c 3.89,0 7.72,0.99 11.13,2.87 v 0 c 0.966,0.535 1.315,1.754 0.78,2.72 v 0 c -0.535,0.966 -1.754,1.315 -2.72,0.78 v 0 C 30.38,5.81 27.22,5 24,5 20.465,5 17.009,5.982 14.007,7.847 v 0 L 14.74,8.14 v 0 c 1.027,0.414 1.526,1.581 1.115,2.605 v 0 c -0.411,1.024 -1.574,1.523 -2.595,1.115 v 0 L 8.567,9.983 C 7.542,9.573 6.886,8.361 7.103,7.279 L 8.04,2.61 v 0 C 8.255,1.528 9.308,0.825 10.39,1.04 v 0 c 1.082,0.215 1.785,1.268 1.57,2.35 v 0 z M 7.29,33.05 v 0 c 0.53,0.971 0.171,2.188 -0.8,2.715 v 0 C 5.519,36.292 4.304,35.931 3.78,34.96 v 0 C 1.95,31.6 1,27.83 1,24 1,21.08 1.55,18.19 2.63,15.49 v 0 c 0.408,-1.027 1.573,-1.528 2.6,-1.12 v 0 c 1.027,0.408 1.528,1.573 1.12,2.6 v 0 C 5.45,19.2 5,21.59 5,24 c 0,3.16 0.79,6.27 2.29,9.05 z M 41.81,17.36 v 0 c -0.386,-1.032 0.14,-2.184 1.175,-2.57 v 0 c 1.035,-0.386 2.189,0.142 2.575,1.18 v 0 C 46.51,18.54 47,21.26 47,24 c 0,3.62 -0.85,7.2 -2.5,10.43 v 0 c -0.497,0.982 -1.7,1.372 -2.685,0.87 v 0 C 40.83,34.798 40.438,33.592 40.94,32.61 v 0 C 42.3,29.94 43,26.99 43,24 43,21.73 42.6,19.49 41.81,17.36 Z M 7.29,39.11 c 0,-1.104 0.896,-2 2,-2 1.104,0 2,0.896 2,2 0,1.104 -0.896,2 -2,2 -1.104,0 -2,-0.896 -2,-2 z M 37.57,10.34 c 0,-1.104 0.896,-2 2,-2 1.104,0 2,0.896 2,2 0,1.104 -0.896,2 -2,2 -1.104,0 -2,-0.896 -2,-2 z"
       inkscape:connector-curvature="0"
       style="fill:url(#_lgradient_74);fill-rule:evenodd" />
    <path
       id="path25"
       stroke-miterlimit="4"
       d="M 33.693,13.949 C 33.111,13.474 32.355,13.29 31.617,13.442 l -9.696,2.037 c -1.149,0.238 -1.983,1.262 -1.983,2.435 v 9.3 c -0.683,-0.509 -1.529,-0.81 -2.445,-0.81 -2.262,0 -4.103,1.84 -4.103,4.103 0,2.262 1.841,4.103 4.103,4.103 2.256,0 4.093,-1.831 4.103,-4.085 0,-10e-4 0,-0.003 0,-0.004 v -9.328 l 11.356,-2.416 v 5.784 c -0.683,-0.508 -1.53,-0.81 -2.445,-0.81 -2.263,0 -4.103,1.841 -4.103,4.103 0,2.263 1.84,4.103 4.103,4.103 0.444,0 0.88,-0.07 1.298,-0.209 0.434,-0.145 0.669,-0.615 0.524,-1.049 -0.144,-0.434 -0.614,-0.669 -1.048,-0.524 -0.249,0.083 -0.509,0.125 -0.774,0.125 -1.348,0 -2.445,-1.097 -2.445,-2.446 0,-1.348 1.097,-2.445 2.445,-2.445 1.348,0 2.445,1.097 2.445,2.445 v 0.006 c 0,0.458 0.371,0.829 0.829,0.829 0.458,0 0.829,-0.371 0.829,-0.829 v -11.983 0 0 c 0,-0.751 -0.334,-1.454 -0.917,-1.928 z m -16.2,19.003 c -1.348,0 -2.445,-1.097 -2.445,-2.445 0,-1.348 1.097,-2.445 2.445,-2.445 1.348,0 2.445,1.097 2.445,2.445 0,1.348 -1.097,2.445 -2.445,2.445 z m 4.103,-15.038 c 0,-0.391 0.278,-0.732 0.663,-0.812 l 9.696,-2.037 c 0.057,-0.011 0.113,-0.017 0.169,-0.017 0.189,0 0.373,0.064 0.523,0.186 0.194,0.158 0.305,0.393 0.305,0.643 v 1.205 l -11.356,2.416 z"
       inkscape:connector-curvature="0"
       style="vector-effect:non-scaling-stroke;fill:url(#_lgradient_75);stroke:url(#_lgradient_76);stroke-width:1;stroke-linecap:butt;stroke-linejoin:miter;stroke-miterlimit:4" />
  </g>
</svg>

<?xml version="1.0" encoding="UTF-8" standalone="no"?><!-- Generator: Gravit.io --><svg xmlns="http://www.w3.org/2000/svg" xmlns:xlink="http://www.w3.org/1999/xlink" style="isolation:isolate" viewBox="0 0 48 48" width="48pt" height="48pt"><linearGradient id="_lgradient_74" x1="0" y1="0.5" x2="0.9074880558539661" y2="0.9200778838291643" gradientTransform="matrix(46,0,0,46,1,1)" gradientUnits="userSpaceOnUse"><stop offset="2.1739130434782608%" stop-opacity="1" style="stop-color:rgb(242,79,92)"/><stop offset="49.56521739130435%" stop-opacity="1" style="stop-color:rgb(208,103,207)"/><stop offset="98.26086956521739%" stop-opacity="1" style="stop-color:rgb(49,193,233)"/></linearGradient><path d=" M 33.484 40.48 L 32.81 40.83 L 32.81 40.83 L 32.81 40.83 L 32.81 40.83 C 30.09 42.26 27.07 43 24 43 C 21.04 43 18.12 42.31 15.48 40.98 L 15.48 40.98 C 14.492 40.483 13.287 40.882 12.79 41.87 L 12.79 41.87 C 12.293 42.858 12.692 44.063 13.68 44.56 L 13.68 44.56 C 16.88 46.17 20.42 47 24 47 C 27.48 47 30.908 46.212 34.029 44.699 C 33.864 45.749 34.558 46.751 35.61 46.96 L 35.61 46.96 C 36.692 47.175 37.745 46.472 37.96 45.39 L 37.96 45.39 L 38.868 40.851 C 39.084 39.769 38.458 38.49 37.47 37.997 L 33.89 36.21 L 33.89 36.21 C 32.908 35.719 31.709 36.12 31.215 37.105 L 31.215 37.105 C 30.721 38.09 31.122 39.293 32.11 39.79 L 32.11 39.79 L 33.484 40.48 L 33.484 40.48 L 33.484 40.48 Z  M 11.73 4.545 L 11.85 4.47 C 15.5 2.2 19.71 1 24 1 C 27.89 1 31.72 1.99 35.13 3.87 L 35.13 3.87 C 36.096 4.405 36.445 5.624 35.91 6.59 L 35.91 6.59 C 35.375 7.556 34.156 7.905 33.19 7.37 L 33.19 7.37 C 30.38 5.81 27.22 5 24 5 C 20.465 5 17.009 5.982 14.007 7.847 L 14.007 7.847 L 14.74 8.14 L 14.74 8.14 C 15.767 8.554 16.266 9.721 15.855 10.745 L 15.855 10.745 C 15.444 11.769 14.281 12.268 13.26 11.86 L 13.26 11.86 L 8.567 9.983 C 7.542 9.573 6.886 8.361 7.103 7.279 L 8.04 2.61 L 8.04 2.61 C 8.255 1.528 9.308 0.825 10.39 1.04 L 10.39 1.04 C 11.472 1.255 12.175 2.308 11.96 3.39 L 11.96 3.39 L 11.73 4.545 L 11.73 4.545 L 11.73 4.545 L 11.73 4.545 Z  M 7.29 33.05 L 7.29 33.05 C 7.82 34.021 7.461 35.238 6.49 35.765 L 6.49 35.765 C 5.519 36.292 4.304 35.931 3.78 34.96 L 3.78 34.96 C 1.95 31.6 1 27.83 1 24 C 1 21.08 1.55 18.19 2.63 15.49 L 2.63 15.49 C 3.038 14.463 4.203 13.962 5.23 14.37 L 5.23 14.37 C 6.257 14.778 6.758 15.943 6.35 16.97 L 6.35 16.97 C 5.45 19.2 5 21.59 5 24 C 5 27.16 5.79 30.27 7.29 33.05 L 7.29 33.05 L 7.29 33.05 L 7.29 33.05 L 7.29 33.05 L 7.29 33.05 L 7.29 33.05 Z  M 41.81 17.36 L 41.81 17.36 C 41.424 16.328 41.95 15.176 42.985 14.79 L 42.985 14.79 C 44.02 14.404 45.174 14.932 45.56 15.97 L 45.56 15.97 C 46.51 18.54 47 21.26 47 24 C 47 27.62 46.15 31.2 44.5 34.43 L 44.5 34.43 C 44.003 35.412 42.8 35.802 41.815 35.3 L 41.815 35.3 C 40.83 34.798 40.438 33.592 40.94 32.61 L 40.94 32.61 C 42.3 29.94 43 26.99 43 24 C 43 21.73 42.6 19.49 41.81 17.36 L 41.81 17.36 L 41.81 17.36 L 41.81 17.36 L 41.81 17.36 Z  M 7.29 39.11 C 7.29 38.006 8.186 37.11 9.29 37.11 C 10.394 37.11 11.29 38.006 11.29 39.11 C 11.29 40.214 10.394 41.11 9.29 41.11 C 8.186 41.11 7.29 40.214 7.29 39.11 L 7.29 39.11 Z  M 37.57 10.34 C 37.57 9.236 38.466 8.34 39.57 8.34 C 40.674 8.34 41.57 9.236 41.57 10.34 C 41.57 11.444 40.674 12.34 39.57 12.34 C 38.466 12.34 37.57 11.444 37.57 10.34 Z " fill-rule="evenodd" fill="url(#_lgradient_74)"/><linearGradient id="_lgradient_75" x1="-0.46697593715805014" y1="0.048950684222416066" x2="1.200536456816469" y2="1.2873238795318682" gradientTransform="matrix(21.22,0,0,21.22,13.39,13.39)" gradientUnits="userSpaceOnUse"><stop offset="2.1739130434782608%" stop-opacity="1" style="stop-color:rgb(242,79,92)"/><stop offset="49.56521739130435%" stop-opacity="1" style="stop-color:rgb(208,103,207)"/><stop offset="98.26086956521739%" stop-opacity="1" style="stop-color:rgb(49,193,233)"/></linearGradient><linearGradient id="_lgradient_76" x1="-0.4541284151968013" y1="0.07357954415495871" x2="1.164339496601997" y2="1.2629082564818583"><stop offset="2.1739130434782608%" stop-opacity="1" style="stop-color:rgb(242,79,92)"/><stop offset="49.56521739130435%" stop-opacity="1" style="stop-color:rgb(208,103,207)"/><stop offset="98.26086956521739%" stop-opacity="1" style="stop-color:rgb(49,193,233)"/></linearGradient><path d=" M 33.693 13.949 C 33.111 13.474 32.355 13.29 31.617 13.442 L 21.921 15.479 C 20.772 15.717 19.938 16.741 19.938 17.914 L 19.938 27.214 C 19.255 26.705 18.409 26.404 17.493 26.404 C 15.231 26.404 13.39 28.244 13.39 30.507 C 13.39 32.769 15.231 34.61 17.493 34.61 C 19.749 34.61 21.586 32.779 21.596 30.525 C 21.596 30.524 21.596 30.522 21.596 30.521 L 21.596 21.193 L 32.952 18.777 L 32.952 24.561 C 32.269 24.053 31.422 23.751 30.507 23.751 C 28.244 23.751 26.404 25.592 26.404 27.854 C 26.404 30.117 28.244 31.957 30.507 31.957 C 30.951 31.957 31.387 31.887 31.805 31.748 C 32.239 31.603 32.474 31.133 32.329 30.699 C 32.185 30.265 31.715 30.03 31.281 30.175 C 31.032 30.258 30.772 30.3 30.507 30.3 C 29.159 30.3 28.062 29.203 28.062 27.854 C 28.062 26.506 29.159 25.409 30.507 25.409 C 31.855 25.409 32.952 26.506 32.952 27.854 L 32.952 27.86 C 32.952 28.318 33.323 28.689 33.781 28.689 C 34.239 28.689 34.61 28.318 34.61 27.86 L 34.61 15.877 L 34.61 15.877 L 34.61 15.877 C 34.61 15.126 34.276 14.423 33.693 13.949 L 33.693 13.949 Z  M 17.493 32.952 C 16.145 32.952 15.048 31.855 15.048 30.507 C 15.048 29.159 16.145 28.062 17.493 28.062 C 18.841 28.062 19.938 29.159 19.938 30.507 C 19.938 31.855 18.841 32.952 17.493 32.952 Z  M 21.596 17.914 C 21.596 17.523 21.874 17.182 22.259 17.102 L 31.955 15.065 C 32.012 15.054 32.068 15.048 32.124 15.048 C 32.313 15.048 32.497 15.112 32.647 15.234 C 32.841 15.392 32.952 15.627 32.952 15.877 L 32.952 17.082 L 21.596 19.498 L 21.596 17.914 Z " fill="url(#_lgradient_75)" vector-effect="non-scaling-stroke" stroke-width="1" stroke="url(#_lgradient_76)" stroke-linejoin="miter" stroke-linecap="butt" stroke-miterlimit="4"/></svg>
